arcticons-light/symbolic/apps/org.gnome.Terminal-symbolic.svg

<?xml version="1.0" encoding="UTF-8" standalone="no"?>
<svg
   id="Layer_2"
   data-name="Layer 2"
   viewBox="0 0 48 48"
   version="1.1"
   sodipodi:docname="org.gnome.Terminal.svg"
   xmlns:inkscape="http://www.inkscape.org/namespaces/inkscape"
   xmlns:sodipodi="http://sodipodi.sourceforge.net/DTD/sodipodi-0.dtd"
   xmlns="http://www.w3.org/2000/svg"
   xmlns:svg="http://www.w3.org/2000/svg">
  <sodipodi:namedview
     id="namedview1"
     pagecolor="#ffffff"
     bordercolor="#666666"
     borderopacity="1.0"
     inkscape:showpageshadow="2"
     inkscape:pageopacity="0.0"
     inkscape:pagecheckerboard="0"
     inkscape:deskcolor="#d1d1d1" />
  <defs
     id="defs1">
    <style
       id="style1">.cls-1{fill:none;stroke:#000;stroke-width:2px;stroke-linecap:round;stroke-linejoin:round;}</style>
  </defs>
  <path
     style="color:#000000;fill:#000000;stroke-linecap:round;stroke-linejoin:round;-inkscape-stroke:none"
     d="M 7.4355469,4.5 C 5.8232122,4.4915803 4.4915803,5.8232122 4.5,7.4355469 V 40.564453 C 4.4915803,42.176788 5.8232122,43.50842 7.4355469,43.5 H 40.564453 C 42.176788,43.50842 43.50842,42.176788 43.5,40.564453 V 7.4355469 C 43.50842,5.8232122 42.176788,4.4915803 40.564453,4.5 Z m -0.011719,2 a 1.0001,1.0001 0 0 0 0.00586,0 H 40.570312 a 1.0001,1.0001 0 0 0 0.0059,0 C 41.100258,6.4972632 41.502737,6.8997417 41.5,7.4238281 a 1.0001,1.0001 0 0 0 0,0.00586 V 40.570312 a 1.0001,1.0001 0 0 0 0,0.0059 c 0.0027,0.524086 -0.399742,0.926565 -0.923828,0.923828 a 1.0001,1.0001 0 0 0 -0.0059,0 H 7.4296875 a 1.0001,1.0001 0 0 0 -0.00586,0 C 6.8997417,41.502737 6.4972632,41.100258 6.5,40.576172 a 1.0001,1.0001 0 0 0 0,-0.0059 V 7.4296875 a 1.0001,1.0001 0 0 0 0,-0.00586 C 6.4972632,6.8997417 6.8997417,6.4972632 7.4238281,6.5 Z m 3.6367189,15.544922 a 1,1 0 0 0 -1.3671876,0.365234 1,1 0 0 0 0.3671876,1.365235 l 11.080078,6.404296 -11.080078,6.404297 a 1,1 0 0 0 -0.3671876,1.367188 1,1 0 0 0 1.3671876,0.365234 l 12.580078,-7.271484 a 1.0001,1.0001 0 0 0 0,-1.730469 z m 13.378906,14.404297 a 1,1 0 0 0 -1,1 1,1 0 0 0 1,1 h 13.451172 a 1,1 0 0 0 1,-1 1,1 0 0 0 -1,-1 z"
     id="path1" />
</svg>

<?xml version="1.0" encoding="UTF-8"?>
<svg id="Layer_2" data-name="Layer 2" version="1.1" viewBox="0 0 48 48" xmlns="http://www.w3.org/2000/svg">
 <defs id="defs4">
  <style id="style2">.cls-1{fill:none;stroke:#000;stroke-width:2px;stroke-linecap:round;stroke-linejoin:round;}</style>
 </defs>
 <path id="path6" d="m7.4355 4.5c-1.6123-0.0084197-2.944 1.3232-2.9355 2.9355v33.129c-0.0084197 1.6123 1.3232 2.944 2.9355 2.9355h33.129c1.6123 0.00842 2.944-1.3232 2.9355-2.9355v-33.129c0.00842-1.6123-1.3232-2.944-2.9355-2.9355zm-0.011719 2a1.0001 1.0001 0 0 0 0.00586 0h33.141a1.0001 1.0001 0 0 0 0.0059 0c0.52405-0.0027368 0.92652 0.39974 0.92379 0.92383a1.0001 1.0001 0 0 0 0 0.00586v33.141a1.0001 1.0001 0 0 0 0 0.0059c0.0027 0.52409-0.39974 0.92656-0.92383 0.92383a1.0001 1.0001 0 0 0-0.0059 0h-33.141a1.0001 1.0001 0 0 0-0.00586 0c-0.52409 0.002697-0.92656-0.39978-0.92383-0.92387a1.0001 1.0001 0 0 0 0-0.0059v-33.141a1.0001 1.0001 0 0 0 0-0.00586c-0.0027368-0.52409 0.39974-0.92656 0.92383-0.92383zm3.6367 15.545a1 1 0 0 0-1.3672 0.36523 1 1 0 0 0 0.36719 1.3652l11.08 6.4043-11.08 6.4043a1 1 0 0 0-0.36719 1.3672 1 1 0 0 0 1.3672 0.36523l12.58-7.2715a1.0001 1.0001 0 0 0 0-1.7305zm13.379 14.404a1 1 0 0 0-1 1 1 1 0 0 0 1 1h13.451a1 1 0 0 0 1-1 1 1 0 0 0-1-1z" color="#000000" stroke-linecap="round" stroke-linejoin="round" style="-inkscape-stroke:none"/>
</svg>
